X:1
T:Fantasía nº.6 Z.737
T:14-6-1680
T:H. Purcell
T:©Francisco Javier Meca Guevara
T:©Francisco Javier Meca Guevara
T:©Francisco Javier Meca Guevara
Z:©Francisco Javier Meca Guevara
%%score { ( 1 2 ) | ( 3 4 ) }
L:1/8
M:4/4
K:F
V:1 treble nm="Piano"
V:2 treble 
V:3 bass 
V:4 bass 
V:1
 f6 ed | ecfA BG c2- | c2 B2 A2 d2 | G6 G2 | F2 E2 D4 | E2 FE D2 z2 | z4 z2 f2- | f2 e2 d2 g2 | %8
 d4 e2 f2 | g4 z2 c2- | c2 B2 A2 d2 | G2 c3 d =B2 | c2 A2 G4 | A2 B3 c A2 | B2 b4 ag | %15
 afbd _ec f2- | fBcd _e2 c2 | _d2 B6 | z2 _e4 _d2 | c2 f2 A2 B2- | B2 A2 B2 cd | _e6 d2 | c6 B2 | %23
 A2 a4 g2- | g2 f2 e4 | d2 c2 =B4- | B2 A4 ^G2 | A3 =G F2 e2- | e2 dc c=BeA | =B4 _B4 | A2 G2 ^F4 | %31
 E2 d4 c2 | =B2 e2 A2 d2- | dc c4 =B2 | c2 e2 ^f2 g2- | g2 f2 e2 a2 | ^d2 e4 =d2 | %37
 ^c2 g2 =B2 =b2- | b2 a4 g2- | g2 ^f2 g2 =f2- | f2 e2 d2 g2 | =B2 e4 d2- | dc c4 =B2 | %43
 c4 z2"^Slow" G2 | _A6 G>A | G4 z2 G2 | c6 B>c | B2 B2 _d4- | d2 _d2 c4- | c2 c2 f4- | f2 f2 _e4 | %51
 _d8 | =d4 _e4- | e2 _e2 d4- | d2 c2 c4- | c2 c2 B4- | B2 B2 _A4 | G4 F4- | F4 _E4- | E2 _E2 _D4 | %60
 C8 ||"^Quick" c3 c de f2- | ff e2 d2 c2 | z4 f3 f | ga b3 b a2 | g2 f3 f _ed | c3 c d2 _e2 | %67
 f3 g a4- | aagf e3 e | ^f2 g3 g f2 | g2 G3 G A=B | c3 c B2 A2 | G8 | z8 | f3 f _ed c2- | %75
 cc d2 =e2 f2 | g8 | z4 z2 c2- | ccBA GG A2 | =B2 c4 _B2 | c2 A2 E4 | ^F2 A2 d4- | d2 G2 _e4- | %83
 e2 c2 f4- | f2 F2 B4- | B2 B2 A2 G2 | A8 |] %87
V:2
 z8 | z2 F4 E2 | D2 G2 C2 F2- | F2 ED _E4 | D2 c4 B2 | A2 d2 G4 | F2 ED EC[I:staff +1]E,A, | %7
 B,G, C2 A,2 G,2 |[I:staff -1] G6[I:staff +1] F2 | E2[I:staff -1] F4 E2 | D2 G4 F2 | E2 A2 D2 G2- | %12
 G2 F4 _E2- | E2 D2 C2 F2 |[I:staff +1] B,A, G,2[I:staff -1] G2[I:staff +1] E2 | F2 D2 C2 B,2 | %16
[I:staff -1] BAGF G2 _A2- | A2 G2 F2 B2 | _E4 z2 E2- | E2 _D2 C2 F2 | C2 F4 B2 | G4 F4 | %22
 G2 A2 A,2 D2- | D2 D2 D2[I:staff +1] E,2 | F,2 D3 C/=B,/[I:staff -1] C2 | %25
[I:staff +1] =B,2[I:staff -1] A4 ^G^F | ^GEAC D =B,2 C/D/ | C2 A,2 =B,4 | %28
 D2 F2[I:staff +1] =B,2[I:staff -1] C2 | D2 ^D2 E4 | =B,4 D2 B,2- | B,2 =B,2 A,2 A2- | %32
 A2 G2 F2 _B2 | E2 _E2 D4 | C c2 B A2 d2 |[I:staff +1] E2[I:staff -1] d4 c2 | =B2 e2 ^A2 B2- | %37
 B2 ^A2 =B2[I:staff +1] ^F,2 |[I:staff -1] G2 A2 ^F2 D2 | E2 C2 d3 c | %40
[I:staff +1] =B,2[I:staff -1] B4 A2 | G2 c2 F4 | E4 D4 | E4 z2 E2 | F6 E>F | E4 z2 _E2 | _A6 G>A | %47
 G6 G2 | B6 B2 | _A6 B2 | c4 F4 | F6 G2 | _A4 G4 | F8 | _E8 | D4 G4- | G2 G2 F4 | E4 C4 | B,6 B,2 | %59
 A,4[I:staff +1] F,4 | F,8 ||[I:staff -1] z4 F3 F | GA B3 B A2 | G4 F4- | %64
 F2[I:staff +1] E2 F,G,A,[I:staff -1]c- | cG B2 A4 | z2 G3 G FE | %67
[I:staff +1] D3 E F2[I:staff -1] G2 | A6 A2- | A2 Bc A4 | G4 F3 F | ED C3 C D2 | E8 | z8 | %74
 z4 F3 F | GA B3 B A2 | G2 F4 E2 | F4 C3 C | DE F3 F E2 | D2 C2 F4 | E2 D4 ^C2 | D4 z2 =F2 | %82
 G6 G2 | F6 A2 | B4[I:staff +1] D4- | D2 D2 C2 B,2 |[I:staff -1] F8 |] %87
V:3
 z8 | z8 | z8 | C6 =B,A, | =B,G,CE, F,D, G,2 | C,2 A,2 =B,2 C2- | C2 =B,2 C,3 C | %7
 D2 E2[I:staff -1] F2[I:staff +1] C2- | C2[I:staff -1] B4 A2 |[I:staff +1] G2[I:staff -1] c2 G4 | %10
 A2[I:staff +1] z2 z4 | z2 F4 ED | EC[I:staff -1]F[I:staff +1]A, B,G, C2- | %13
 C2[I:staff -1] D[I:staff +1]_E[I:staff -1] F4- | %14
 F2[I:staff +1] ED[I:staff -1] EC[I:staff +1] C2- | C2 B,2 A,2 D2 |[I:staff -1] GF _E4 F2- | %17
 F_E E3 D/C/ D2 | _E2[I:staff +1] G,2[I:staff -1] A,4- | A,2 B,2[I:staff +1] _E2 _D2 | %20
 C F2 _E[I:staff -1] D2 G2 |[I:staff +1] C2[I:staff -1] c4 B2- | B2 AG ^F2 G2- | %23
 G2 ^FE FDG[I:staff +1]=B, | ^CA, D2 E4- | E4[I:staff -1] F2 ED |[I:staff +1] C4 =B,2 E2- | %27
 E2[I:staff -1] DC D=B,E[I:staff +1]^G, |[I:staff -1] A,2[I:staff +1] =B,2 ^G,[I:staff -1]^G A2- | %29
 A2 =G^F G4 | ^F2 E4 ^D2 | E3 E =F2 E2- | E2[I:staff +1] DC D3 C | =B,2[I:staff -1] G4 F2 | %34
 E2 A2[I:staff +1] D4 | ^C2[I:staff -1] A2 =B2[I:staff +1] E2 | ^F2 =B,2 ^C2 D2 | %37
[I:staff -1] G2[I:staff +1] ^C2[I:staff -1] ^F4- | F2 E2 ^D2 G2 | C4[I:staff +1] =B,,3 C, | %40
 D2 EF G3 F | E3 D/C/ =B,G,A,B, | CDEF[I:staff -1] G4 | G4[I:staff +1] z2 C2 |[I:staff -1] C8 | %45
[I:staff +1] C4 z2 C2 |[I:staff -1] _E8 |[I:staff +1] _E6 E2 |[I:staff -1] G6 G2 | F6 F2 | %50
 _E2 _D2[I:staff +1] C4- | C2 B,2 B,4 | F,4 G,4 | _A,8 | G,4[I:staff -1] G4- | %55
 G2[I:staff +1] F_E D4 | C4[I:staff -1] _D4- | D2[I:staff +1] G,2 _A,4 | G,4 C4- | C2 C2 B,4- | %60
 B,4 A,4 || z8 | C3 C DE F2- | FF E2 D2 C2 | B,3 B, CD[I:staff -1] _e2- | %65
 e_E[I:staff +1] D2 C2 F,2 | G,2 F,_E, B,3 B, | A,2 D3 D CB, | A,3 =B, C2 ^C2 | D3 D FEDC | =B,8 | %71
 z8 | z2 C3 C DE | F3 F _E2 D2 | C6 F2- | F_EDC B,2 C2- | CD[I:staff -1]EF GA B2 | A3 A GF E2- | %78
 EE D3[I:staff +1] D C2 | F2 E2[I:staff -1] D4 |[I:staff +1] C3 B, A,4 | A,4 z2[I:staff -1] D2 | %82
[I:staff +1] B,6[I:staff -1] _E2 | C6 C2 |[I:staff +1] D3 E F4- | F2 F2 _E2 D2 |[I:staff -1] C8 |] %87
V:4
 z8 | z8 | z8 | z8 | z8 | z2 F,4 E,2 | D,2 G,2 C,B,, A,,2 | G,2 G,2 F,2 E,2 | G,4 C,2 C2- | %9
 C2 B,A, B,G,CC, | F,D,B,,G,, D,4 | E,2 F,2 G,4 | z8 | F,6 E,2 | D,2 G,2 C,4 | F,6 D,2 | %16
 _E,3 D, C,B,, _A,,2 | B,,6 _A,,2 | G,,2 C,2 F,,4- | F,,8- | F,,4 B,,2 B,2- | B,2 A,G, A,F,B,D, | %22
 _E,C, F,2 D,2 C,2 | D,4- D,C, B,,2 | A,,2 A,4 ^G,^F, | ^G,E,A,C, D,=B,,C,D, | E,8 | %27
 A,2 A,,4 G,,2 | F,,2 F,2 E,4- | E,2 E,4 ^D,^C, | ^D,=B,,E,G,, A,,^F,, B,,2 | ^G,,4 A,,4 | %32
 E,4 F,3 D, | G,4 G,,4 | C,2 C4 B,2 | A,2 D2 ^G,2 A,2- | A,2 =G,2 ^F,2 =B,2 | E,4 ^D,2 =D,2 | %38
 ^C,2 =C,2 =B,,4 | A,,4 G,,4- | G,,8- | G,,8- | G,,8 | C,4 z2 C,2 | F,,8 | C,4 z2 C,2 | _A,,8 | %47
 _E,8 | =E,4 F,4- | F,2 _E,2 _D,4 | A,,8 | B,,8- | B,,8- | B,,4 =B,,4- | B,,4 C,4 | G,,8 | %56
 _A,,4 B,,4 | C,8- | C,8 | F,,8- | F,,8 || z8 | z4 F,3 F, | G,A, B,3 B, A,2 | G,4 F,2 C,2- | %65
 C,C,D,_E, F,3 F, | _E,2 D,C, G,3 G, | F,=E, D,3 D, E,2 | F,2 G,2 A,4 | D,8 | G,8 | z8 | %72
 z4 B,3 B, | A,G, F,3 F, G,2 | A,2 B,4 A,2 | B,3 A, G,2 F,2 | E,2 D,2 C,4 | F,3 F, E,D, C,2- | %78
 C,C, D,2 E,2 F,2 | G,4 G,,4 | C,2 F,,2 A,,4 | D,4 z2 B,,2 | _E,6 C,2 | A,,6 F,,2 | D,6 E,2 | F,8 | %86
 F,,8 |] %87

